X: 196
T:Collin's Jig
T:Brid Harpur's
R:jig
D:Inishkeeragh by Brenda McCann
Z:Alf Warnock, alf0@rogers.com - www.alfwarnock.info/alfs
M:6/8
L:1/8
K:G
|: "G"B2B GBd|"Em"g2g ged|ege dBG|"D7"AGA BGE|
"G"GED GBd|"Em"g2g ged|ege dBd|"D"egf "G"g3:|
"G"g2g ged|"Em"ege dBG|"G"g2g ged|"D"eag a3|
|[1"G"g2g ged|"Em"ege dBA| "G"B2B dBA|"D"GBA "G"G3:|
|[2"G"gba ged|"Em"ege dBA|"G"B2B dBA|"D"GBA "G"G3|]
